X:1
T:Title
%%score { 1 | ( 2 3 ) }
L:1/8
M:6/8
K:Bb
V:1 treble nm="Grand Piano"
V:2 bass 
V:3 bass 
V:1
 z3 z2[Q:1/4=95] [DF] | [Fd]2 [DF] [Fd]2 [DF] | [Fd]3- [Fd][Gc][Gd] | [Ge]2 c cBc | %4
[M:5/8] [Fd]3 [DB]2 |[M:1/8] [DF] |[M:3/4] [Fd]2 [DF] [Fd]2 [DF] | d2 [B=e] [Ff]2 [Fd] | %8
 [Fc]2 [FA][GB] A[B,=EG] |[M:5/8] [A,F]-[A,F]- [A,F]3 |[M:1/8] F |[M:3/4] c2 F c2 =B | c3 A Bc | %13
 d2 B e2 d |[M:5/8] c-c- c3 |[M:1/8] F |[M:3/4] c2 c=B cd | c2 A [Fd]2 [DGB] | %18
 [FA]2 [Ac][GB] A[B,=EG] |[M:5/8] [A,F]-[A,F]- [A,F]3 |[M:1/8] F |[M:3/4] [Fd]2 [DF] [Fd]2 [DF] | %22
 [Fd]4 [Ac][_Ad] | [Ge]2 cc Bc |[M:5/8] [Fd]3 [DB]2 |[M:1/8] [DF] |[M:3/4] [Fd]2 [DF] [Fd]2 [DF] | %27
[M:7/8] [Fd]2 [_Af] [Ge]3 [Gc] |[M:3/4] d2 Bc B[CEA] |[M:5/8] [B,DB]-[B,DB]- [B,DB]3 |] %30
V:2
 z3 z2 [B,,B,] | [B,,B,]2 [B,,B,] [B,,B,]2 [B,,B,] | [B,,B,]3- [B,,B,][E,C][D,=B,] | %3
 [C,C]2 [F,A,E] [A,E][B,D][F,E] |[M:5/8] [B,,F,]3 [B,,B,]2 |[M:1/8] [B,,B,] | %6
[M:3/4] [B,,B,]2 [B,,B,] [B,,B,]2 [B,,B,] | [B,F]2 [G,C][K:bass] [F,A,]2 [B,,B,] | %8
 [C,A,]2 .[C,C]2 FC, |[M:5/8] F,-F,- F,3 |[M:1/8] F, |[M:3/4] [F,A,E]2 [F,A,E] [F,A,E]2 [F,_A,D] | %12
 [F,A,E]3 C [B,D][F,A,E] | [B,F]2 [B,DF] [A,CF]2 [B,F] |[M:5/8] [F,A,F]-[F,A,F]- [F,A,F]3 | %15
[M:1/8][K:bass] F, |[M:3/4] [F,A,F]2 [F,A,F][F,F]- [F,=A,F][F,B,F] | [F,A,F]2 [F,CF] [B,,B,]2 B,, | %18
 [C,C]2 .[C,C]2 FC, |[M:5/8] F,-F,- F,3 |[M:1/8] F, |[M:3/4] [B,,B,]2 [B,,B,] [B,,B,]2 [B,,B,] | %22
 [B,,B,]4 [B,,B,][B,,B,] | [E,B,]2 [E,G,E][A,E] [B,D][F,A,F] |[M:5/8] [B,,B,]3 [B,,B,]2 | %25
[M:1/8] [B,,B,] |[M:3/4] [B,,B,]2 [B,,B,] [B,,B,]2 [B,,B,] | %27
[M:7/8] [B,,B,]2 [D,B,] [E,B,]3 [E,B,] |[M:3/4] [F,B,F]2 [F,D]E DF, |[M:5/8] B,,-B,,- B,,3 |] %30
V:3
 x6 | x6 | x6 | z3 .F,3 |[M:5/8] x5 |[M:1/8] x |[M:3/4] x6 | x3[K:bass] x3 | z2 z .[C,C]3 | %9
[M:5/8] x5 |[M:1/8] x |[M:3/4] x6 | z2 z .F,3 | x6 |[M:5/8] x5 |[M:1/8][K:bass] x | %16
[M:3/4] z2 z _A, z2 | x6 | z2 z .[C,C]3 |[M:5/8] x5 |[M:1/8] x |[M:3/4] x6 | x6 | z2 z .F,3 | %24
[M:5/8] x5 |[M:1/8] x |[M:3/4] x6 |[M:7/8] x7 |[M:3/4] z2 z .F,3 |[M:5/8] x5 |] %30

